X:1
T:By the waters of Babylon
T:By the waters of Babylon
T:V. Krupitsky
C:V. Krupitsky
%%score [ ( 1 2 ) ( 3 4 ) ]
L:1/8
Q:1/4=120
M:4/4
K:Emin
V:1 treble nm="MusicXML Part"
V:2 treble 
V:3 bass nm="MusicXML Part"
V:4 bass 
V:1
!p! F2 F2 | G4 G2 B2 | A2 G2 F4 | B4 A2 A2 | G4 G2 F2 | G4 F4 | G6 A2 | (B3 A B2) c2 | d6 c2 | %9
w: By the|wa- ters of|Bab- y- lon|there we sat|down, we sat|down and|wept when|we _ _ re-|mem- bered|
 (B4 A4) | B4!pp! A2 A2 | (G4 F4) | G8 || G2 G2 | (B4 A2) G2 | F4 B2 A2 | G4 F4 | G6 A2 | %18
w: Zi- *|on. Al- le-|lu- *|ia.|On the|wil- * lows|there, on the|wil- lows|there, we|
 (B3 A) B2 c2 | d4 c2 c2 | B4 A4 | B4!pp! A2 A2 | (G4 F4) | G8 || (G2 E2) F2 G2 | (A4 G2) F2 | %26
w: hung _ up our|lyres, we hung|up our|lyres. Al- le-|lu- *|ia.|How _ shall we|sing _ the|
 (G4 F4) | (G2 A2) B2 c2 | d6 c2 | B4!pp! A2 A2 | (G4 F4) | G8 || B4 G2 A2 | (B4 A2 G2) | F8 | %35
w: Lord's _|song _ in a|for- eign|land? Al- le-|lu- *|ia.|If I for-|get _ _|you,|
 (B2 A2 G2) F2 | G4 F4 | G4 A2 A2 | (B3 A) (B2 c2) | d2 d2 d2 c2 | B4 B4 | A2 B2!pp! A2 A2 | %42
w: O _ _ Je-|ru- sa-|lem, let my|right _ hand _|with- er, let my|right hand|with- er. Al- le-|
 (G4 F4) | G8 || G2 | G4 G2 A2 | (B4 A2) G2 | F8 | B2 A2 G4 | F4 G4 | A4 A2 A2 | %51
w: lu- *|ia.|O|daugh- ter of|Bab- * y-|lon,|you de- struc-|tive one;|bless- ed is|
[M:5/4] A2 A2 A2 (B3 A) |[M:4/4] B2 c2 d4 | d2 c2 B2 A2 | B4!pp! A2 A2 | (G4 F4) | G8 || B4 A2 G2 | %58
w: he who re- quites _|you with what|you have done to|us. Al- le-|lu- *|ia.|Bless- ed is|
 F4 F4 | G3 F G2 A2 | B3 A B2 c2 | d6!p! c2 | B4 A4 |!<(! (G2 ^G2 A2 B2)!<)! | c4!>(! A4 | %65
w: he who|takes your lit- tle|ones and dash- es|them a-|gainst the|stone. _ _ _|Al- le-|
 (A4 =G4 | F8)!>)! | E8 |] %68
w: lu- *||ia.|
V:2
 ^D2 D2 | E4 E2 G2 | F2 E2 ^D4 | E4 ^D2 D2 | E4 E2 E2 | E4 ^D4 | E6 F2 | (G3 F G2) A2 | B6 A2 | %9
 (G4 F4) | G4 E2 E2 | (E4 ^D4) | B,8 || E2 E2 | (G4 F2) E2 | ^D4 E2 E2 | E4 ^D4 | E6 F2 | %18
 (G3 F) G2 A2 | B4 A2 A2 | G4 F4 | G4 E2 E2 | (E4 ^D4) | E8 || E4 E2 E2 | E6 E2 | (E4 ^D4) | %27
 (E2 F2) G2 A2 | B6 A2 | G4 E2 E2 | (E4 ^D4) | B,8 || G4 E2 F2 | G4 F2 E2 | ^D8 | E6 E2 | E4 ^D4 | %37
 E4 F2 F2 | (G3 F) (G2 A2) | B2 B2 B2 A2 | G4 G4 | F2 G2 E2 E2 | (E4 ^D4) | B,8 || E2 | E4 E2 F2 | %46
 (G4 F2) E2 | ^D8 | E2 ^D2 E4 | ^D4 E4 | F4 F2 F2 |[M:5/4] F2 F2 F2 (G3 F) |[M:4/4] G2 A2 B4 | %53
 B2 A2 G2 F2 | G4 E2 E2 | (E4 ^D4) | B,8 || G4 F2 E2 | ^D4 D4 | E3 ^D E2 F2 | G3 F G2 A2 | B6 A2 | %62
 G4 F4 | E8 | E4 E4 | ^D4 E4- | E4 ^D4 | B,8 |] %68
V:3
!p! B,2 B,2 | B,4 B,2 B,2 | B,2 B,2 B,4 | B,4 B,2 B,2 | B,4 B,2 C2 | B,4 B,4 | B,6 D2 | D6 D2 | %8
 D6 E2 | D8 | D4!pp! C2 C2 | (B,6 A,2) | G,8 || B,2 B,2 | B,6 B,2 | B,4 B,2 C2 | B,4 B,4 | B,6 D2 | %18
 D4 D2 D2 | D4 E2 E2 | D4 D4 | D4!pp! C2 C2 | (B,6 A,2) | G,8 || (B,2 G,2) A,2 B,2 | (C4 B,2) C2 | %26
 B,8 | (B,2 D2) D2 D2 | D6 D2 | D4!pp! C2 C2 | (B,6 A,2) | G,8 || B,4 B,2 B,2 | B,8 | B,8 | %35
 (B,2 C2 B,2) C2 | B,4 B,4 | B,4 D2 D2 | D4 D4 | D2 D2 D2 E2 | D4 D4 | D2 D2!pp! C2 C2 | %42
 (B,6 A,2) | G,8 || B,2 | B,4 B,2 B,2 | B,6 B,2 | B,8 | B,2 B,2 B,4 | B,4 B,4 | =D4 D2 D2 | %51
[M:5/4] D2 D2 D2 D4 |[M:4/4] D2 D2 D4 | D2 E2 D2 D2 | D4!pp! C2 C2 | (B,6 A,2) | G,8 || %57
 B,4 B,2 B,2 | B,4 B,4 | B,3 B, B,2 =D2 | D3 D D2 D2 | D6!p! E2 | D4 B,4 |!<(! (B,4 A,2 ^G,2)!<)! | %64
 A,4!>(! C4 | (B,8 | B,6 A,2)!>)! | G,8 |] %68
V:4
 B,,2 B,,2 | E,4 E,2 E,2 | ^D,2 E,2 (([B,,B,]2 [A,,A,]2)) | [G,,G,]4 [F,,F,]2 [F,,F,]2 | %4
 [E,,E,]4 E,2 A,,2 | B,,4 B,,4 | E,6 D,2 | ([G,,G,]3 D, [B,,G,]2) [G,,G,]2 | [G,,G,]6 C,2 | D,8 | %10
 G,,4 A,,2 A,,2 | B,,8 | E,8 || E,2 E,2 | (E,4 ^D,2) E,2 | (B,2 A,2) G,2 A,2 | B,4 B,,4 | E,6 D,2 | %18
 ([G,,G,]3 D,) [B,,G,]2 [A,,G,]2 | [G,,G,]4 C,2 C,2 | D,4 D,4 | [G,,G,]4 [A,,A,]2 [A,,A,]2 | %22
 [B,,B,]8 | E,8 || E,4 E,2 E,2 | (A,,4 E,2) A,,2 | B,,8 | (E,2 D,2) [B,,G,]2 [A,,G,]2 | %28
 [G,,G,]4 B,,2 D,2 | [G,,G,]4 [A,,A,]2 [A,,A,]2 | [B,,B,]8 | E,8 || E,4 E,2 E,2 | (E,4 ^D,2 E,2) | %34
 (B,4 A,4) | (G,2 F,2 E,2) A,,2 | B,,4 B,,4 | E,4 D,2 D,2 | ([G,,G,]3 D,) (([B,,G,]2 [A,,A,]2)) | %39
 [G,,G,]2 [G,,G,]2 [G,,G,]2 C,2 | D,4 D,4 | D,2 [G,,G,]2 [A,,A,]2 [A,,A,]2 | [B,,B,]8 | E,8 || %44
 E,2 | E,4 E,2 ^D,2 | (E,4 ^D,2) E,2 | (([B,,B,]4 [A,,A,]4)) | [G,,G,]2 [F,,F,]2 [B,,E,]4 | %49
 B,,4 E,4 | D,4 D,2 D,2 |[M:5/4] D,2 D,2 D,2 ([G,,G,]3 D,) |[M:4/4] [B,,G,]2 [A,,G,]2 [G,,G,]4 | %53
 [G,,G,]2 C,2 D,2 D,2 | [G,,G,]4 [A,,A,]2 [A,,A,]2 | [B,,B,]8 | E,8 || E,4 ^D,2 E,2 | B,,4 B,,4 | %59
 E,3 B,, E,2 D,2 | [G,,G,]3 D, [B,,G,]2 [A,,G,]2 | [G,,G,]6 C,2 | D,4 ^D,4 | (E,2 =D,2 C,2 B,,2) | %64
 A,,4 [A,,A,]4 | [B,,B,]8- | [B,,B,]8 | E,8 |] %68

